!!!OTL: Gratanter iubilemus
**kern
*staff1
=--
*clefC1
*k[]
*met(c)
*M4/4
1f
1cc
1a
2a
2g
=-
2a
2.b
4a
1a
2g
0a
=-
2b
2a
2g
2g
4g
4f
1f
2e
=-
0f
=-
0f
=-
!!linebreak:original
2cc
2cc
2cc
2b
=-
1cc
0a
1a
=-
2a
2g
2a
2.b
4a
1a
2g
0a
=-
2b
2a
2g
1g
1f
2e
0f
=-
!!linebreak:original
1cc
1a
0cc
=-
2cc
2dd
2cc
2b
0cc
=-
1cc
1a
0cc
=-
2cc
2dd
2cc
2b
0cc
=-
1cc
1cc
1a
2a
2g
=-
2a
1cc
2.b
4a
1a
2g
=-
0a
=-
!!linebreak:original
1a
2g
2a
=-
2b
2cc
2b
2.a
4g
1f
2e
=-
0f
=-
2b
2a
2g
1g
1f
2e
=-
0f
=-=
*-
!!title: @{OTL}, @{GTL}, ed. @{ENC}
!!!pag:
!!!GTL: Hymnbook C
!!!EFL: 
!!!YEM: Creative Commons CC/BY/NC/SA 4.0
!!!ENC: Marcin Konik
!!!END: 2015-0m-dd
!!!EED: Marcin Konik
!!!EEV: 
!!!ONB: Encoded in vim by Marcin Konik
!!!CharacterEncoding: utf-8
!!!RDF**kern: l=long note in original notation
!!!RDF**kern: i=editorial accidental
!!muse2ps: z14jc180F
!!!COM: Anonim
!!!CDT: [?]
!!!TXO: Polish
!!!ODT: 
!!!GTL: Hymnbook C
!!!ARL: Opactwo św. Wojciecha, Staniątki 
!!!voices:	1
